flaticon/emoticons/in-love-1.svg

<svg xmlns="http://www.w3.org/2000/svg" width="32" height="32" viewBox="0 0 24 24">
    <path d="M8.671875 14.257812C8.765625 14.257812 8.855469 14.226562 8.933594 14.164062L10.476562 12.832031C10.839844 12.515625 11.089844 12.109375 11.199219 11.664062 11.269531 11.367188 11.257812 11.167969 11.242188 11.085938 11.160156 10.238281 10.503906 9.601562 9.710938 9.601562 9.320312 9.601562 8.953125 9.75 8.675781 10.007812 8.402344 9.75 8.046875 9.601562 7.65625 9.601562 6.867188 9.601562 6.210938 10.242188 6.125 11.085938 6.113281 11.167969 6.097656 11.367188 6.167969 11.664062 6.277344 12.109375 6.527344 12.515625 6.894531 12.832031L8.40625 14.160156C8.484375 14.226562 8.578125 14.257812 8.671875 14.257812zM6.945312 11.472656C6.90625 11.308594 6.914062 11.214844 6.914062 11.214844 6.917969 11.203125 6.917969 11.1875 6.921875 11.175781 6.957031 10.792969 7.21875 10.402344 7.65625 10.402344 7.941406 10.402344 8.183594 10.570312 8.304688 10.84375 8.367188 10.992188 8.511719 11.085938 8.671875 11.085938 8.832031 11.085938 8.972656 10.992188 9.039062 10.84375 9.15625 10.578125 9.417969 10.402344 9.710938 10.402344 10.148438 10.402344 10.414062 10.792969 10.453125 11.203125 10.453125 11.203125 10.464844 11.300781 10.421875 11.472656 10.351562 11.757812 10.1875 12.019531 9.949219 12.230469L8.671875 13.328125 7.421875 12.230469C7.179688 12.019531 7.015625 11.757812 6.945312 11.472656zM16.914062 9.601562C16.523438 9.601562 16.15625 9.75 15.878906 10.007812 15.605469 9.75 15.25 9.601562 14.859375 9.601562 14.066406 9.601562 13.410156 10.242188 13.328125 11.085938 13.316406 11.167969 13.300781 11.367188 13.371094 11.664062 13.480469 12.109375 13.730469 12.515625 14.097656 12.832031L15.609375 14.160156C15.683594 14.226562 15.78125 14.257812 15.875 14.257812 15.964844 14.257812 16.058594 14.226562 16.136719 14.164062L17.679688 12.832031C18.042969 12.515625 18.292969 12.109375 18.402344 11.664062 18.472656 11.367188 18.460938 11.167969 18.445312 11.085938 18.359375 10.238281 17.707031 9.601562 16.914062 9.601562zM17.625 11.472656C17.554688 11.757812 17.390625 12.019531 17.152344 12.230469L15.875 13.328125 14.621094 12.230469C14.382812 12.019531 14.21875 11.757812 14.148438 11.472656 14.109375 11.308594 14.117188 11.214844 14.117188 11.214844 14.121094 11.203125 14.121094 11.1875 14.121094 11.175781 14.15625 10.792969 14.421875 10.402344 14.859375 10.402344 15.144531 10.402344 15.386719 10.570312 15.507812 10.84375 15.570312 10.992188 15.714844 11.085938 15.875 11.085938 16.035156 11.085938 16.175781 10.992188 16.242188 10.84375 16.355469 10.578125 16.621094 10.402344 16.914062 10.402344 17.351562 10.402344 17.617188 10.792969 17.65625 11.203125 17.65625 11.203125 17.667969 11.300781 17.625 11.472656zM16.117188 15.605469L8.515625 15.605469C8.292969 15.605469 8.113281 15.785156 8.113281 16.003906 8.113281 18.324219 10 20.207031 12.316406 20.207031 14.632812 20.207031 16.519531 18.324219 16.519531 16.003906 16.519531 15.785156 16.339844 15.605469 16.117188 15.605469zM12.316406 19.40625C10.574219 19.40625 9.136719 18.09375 8.9375 16.40625L15.695312 16.40625C15.496094 18.09375 14.054688 19.40625 12.316406 19.40625zM12.316406 19.40625"/>
    <path d="M 22.515625 7.539062 C 22.289062 5.90625 21.585938 4.496094 20.585938 3.671875 C 20.328125 3.457031 20.136719 3.125 20.023438 2.679688 C 19.691406 1.394531 18.484375 0.5 16.945312 0.390625 C 16.089844 0.335938 15.347656 0.597656 14.53125 0.925781 C 14.503906 0.9375 14.472656 0.9375 14.421875 0.90625 C 14.253906 0.460938 13.878906 0.15625 13.359375 0.046875 C 12.15625 -0.207031 10.304688 0.570312 8.816406 1.925781 C 8.816406 1.570312 8.894531 1.25 9.09375 1.148438 L 9.769531 0.8125 L 9.109375 0.441406 C 8.417969 0.0507812 6.742188 -0.371094 5.375 0.820312 C 4.882812 1.253906 4.519531 1.859375 4.335938 2.574219 C 4.296875 2.71875 4.261719 2.875 4.226562 3.027344 C 4.210938 3.09375 4.15625 3.117188 4.132812 3.121094 C 4.089844 3.128906 4.054688 3.121094 4.015625 3.070312 C 3.800781 2.8125 3.472656 2.683594 3.144531 2.730469 C 2.828125 2.773438 2.558594 2.976562 2.433594 3.273438 C 1.644531 5.101562 0.171875 9.753906 3.3125 13.734375 L 3.3125 20.398438 C 3.3125 21.5 4.210938 22.398438 5.3125 22.398438 L 6.515625 22.398438 L 6.515625 23.078125 C 6.515625 23.585938 6.929688 24 7.4375 24 L 16.796875 24 C 17.304688 24 17.71875 23.585938 17.71875 23.078125 L 17.71875 22.398438 L 18.917969 22.398438 C 20.023438 22.398438 20.917969 21.5 20.917969 20.398438 L 20.917969 13.753906 C 21.386719 13.226562 23.007812 11.109375 22.515625 7.539062 Z M 3.167969 3.589844 C 3.175781 3.574219 3.195312 3.53125 3.257812 3.523438 C 3.277344 3.519531 3.34375 3.515625 3.414062 3.601562 C 3.636719 3.867188 3.984375 3.980469 4.324219 3.898438 C 4.667969 3.816406 4.929688 3.550781 5.007812 3.203125 C 5.039062 3.058594 5.074219 2.910156 5.113281 2.773438 C 5.253906 2.21875 5.53125 1.75 5.902344 1.425781 C 6.742188 0.691406 7.671875 0.785156 8.222656 0.945312 C 8.023438 1.324219 7.964844 1.859375 8.058594 2.511719 C 8.085938 2.726562 8.234375 2.902344 8.441406 2.972656 C 8.648438 3.039062 8.875 2.984375 9.03125 2.828125 C 10.554688 1.28125 12.3125 0.644531 13.191406 0.832031 C 13.570312 0.910156 13.648438 1.121094 13.671875 1.1875 C 13.753906 1.398438 13.910156 1.566406 14.121094 1.65625 C 14.34375 1.753906 14.601562 1.761719 14.832031 1.667969 C 15.578125 1.371094 16.207031 1.144531 16.890625 1.191406 C 17.835938 1.257812 18.953125 1.734375 19.25 2.878906 C 19.40625 3.492188 19.6875 3.96875 20.078125 4.289062 C 20.476562 4.621094 21.441406 5.609375 21.722656 7.648438 C 22.03125 9.871094 21.445312 11.457031 20.921875 12.375 L 20.921875 6.894531 L 20.316406 7.25 C 19.332031 7.828125 18.472656 8.003906 17.761719 7.773438 C 17.652344 7.738281 17.550781 7.695312 17.453125 7.644531 C 17.417969 7.625 17.386719 7.601562 17.351562 7.582031 C 17.296875 7.546875 17.238281 7.515625 17.191406 7.480469 C 17.152344 7.453125 17.125 7.421875 17.089844 7.394531 C 17.050781 7.359375 17.007812 7.328125 16.972656 7.292969 C 16.9375 7.257812 16.90625 7.226562 16.878906 7.191406 C 16.851562 7.160156 16.820312 7.132812 16.796875 7.105469 C 16.761719 7.066406 16.738281 7.03125 16.710938 6.992188 C 16.695312 6.972656 16.675781 6.949219 16.660156 6.925781 C 16.628906 6.886719 16.609375 6.851562 16.585938 6.816406 C 16.582031 6.804688 16.570312 6.789062 16.5625 6.78125 C 16.515625 6.695312 16.488281 6.640625 16.484375 6.632812 L 16.398438 6.433594 L 16.179688 6.398438 C 12.34375 5.808594 10.472656 7.414062 9.949219 7.976562 C 7.160156 7.671875 5.953125 6.871094 5.941406 6.863281 L 5.644531 6.660156 L 5.410156 6.933594 C 4.789062 7.65625 4.070312 8.027344 3.574219 8.207031 L 3.3125 8.304688 L 3.3125 12.332031 C 1.351562 9.058594 2.339844 5.515625 3.167969 3.589844 Z M 16.917969 23.078125 C 16.917969 23.144531 16.863281 23.199219 16.796875 23.199219 L 7.4375 23.199219 C 7.371094 23.199219 7.316406 23.144531 7.316406 23.078125 L 7.316406 22.398438 L 16.917969 22.398438 Z M 20.117188 20.398438 C 20.117188 21.0625 19.582031 21.597656 18.917969 21.597656 L 5.3125 21.597656 C 4.652344 21.597656 4.113281 21.0625 4.113281 20.398438 L 4.113281 8.855469 C 4.605469 8.640625 5.21875 8.285156 5.792969 7.699219 C 6.355469 7.992188 7.714844 8.5625 10.078125 8.792969 L 10.304688 8.816406 L 10.4375 8.632812 C 10.453125 8.613281 11.953125 6.632812 15.859375 7.160156 C 16.0625 7.515625 16.578125 8.230469 17.503906 8.53125 C 18.285156 8.789062 19.160156 8.695312 20.117188 8.253906 Z M 20.117188 20.398438"/>
</svg>

<svg xmlns="http://www.w3.org/2000/svg" width="32" height="32" viewBox="0 0 24 24">
    <path d="M8.672 14.258a.414.414 0 0 0 .262-.094l1.543-1.332c.363-.316.613-.723.722-1.168.07-.297.059-.496.043-.578-.082-.848-.738-1.484-1.531-1.484-.39 0-.758.148-1.035.406a1.472 1.472 0 0 0-1.02-.406c-.789 0-1.445.64-1.531 1.484-.012.082-.027.281.043.578.11.445.36.852.727 1.168l1.511 1.328a.407.407 0 0 0 .266.098zm-1.727-2.785c-.039-.164-.03-.258-.03-.258.003-.012.003-.027.007-.04.035-.382.297-.773.734-.773.285 0 .528.168.649.442a.4.4 0 0 0 .734 0 .736.736 0 0 1 .672-.442c.437 0 .703.391.742.801 0 0 .012.098-.031.27-.07.285-.235.547-.473.757l-1.277 1.098-1.25-1.098a1.478 1.478 0 0 1-.477-.757zm0 0M16.914 9.602c-.39 0-.758.148-1.035.406a1.472 1.472 0 0 0-1.02-.406c-.793 0-1.449.64-1.53 1.484-.013.082-.028.281.042.578.11.445.36.852.727 1.168l1.511 1.328a.4.4 0 0 0 .266.098c.09 0 .184-.031.262-.094l1.543-1.332c.363-.316.613-.723.722-1.168.07-.297.059-.496.043-.578-.086-.848-.738-1.484-1.53-1.484zm.711 1.87c-.07.286-.234.548-.473.758l-1.277 1.098-1.254-1.098a1.496 1.496 0 0 1-.473-.757c-.039-.164-.03-.258-.03-.258.003-.012.003-.027.003-.04.035-.382.3-.773.738-.773.286 0 .528.168.649.442a.4.4 0 0 0 .734 0 .732.732 0 0 1 .672-.442c.438 0 .703.391.742.801 0 0 .012.098-.031.27zm0 0M16.117 15.605H8.516a.401.401 0 0 0-.403.399 4.207 4.207 0 0 0 4.203 4.203 4.207 4.207 0 0 0 4.204-4.203.401.401 0 0 0-.403-.399zm-3.8 3.801a3.405 3.405 0 0 1-3.38-3h6.758c-.199 1.688-1.64 3-3.379 3zm0 0"/>
    <path d="M22.516 7.54c-.227-1.634-.93-3.044-1.93-3.868-.258-.215-.45-.547-.563-.992C19.691 1.395 18.484.5 16.945.39c-.855-.054-1.597.208-2.414.536-.027.011-.058.011-.11-.02-.167-.445-.542-.75-1.062-.86-1.203-.253-3.054.524-4.543 1.88 0-.356.079-.676.278-.778L9.77.813 9.11.44c-.692-.39-2.368-.812-3.735.38-.492.433-.855 1.038-1.04 1.753-.038.145-.073.301-.108.453a.122.122 0 0 1-.094.094c-.043.008-.078 0-.117-.05a.958.958 0 0 0-.871-.34.899.899 0 0 0-.711.542c-.79 1.829-2.262 6.48.878 10.461v6.664c0 1.102.899 2 2 2h1.204v.68c0 .508.414.922.921.922h9.36a.924.924 0 0 0 .922-.922v-.68h1.199c1.105 0 2-.898 2-2v-6.644c.469-.527 2.09-2.645 1.598-6.215zM3.168 3.59c.008-.016.027-.059.09-.067.02-.003.086-.007.156.079.223.265.57.378.91.296a.914.914 0 0 0 .684-.695c.031-.144.066-.293.105-.43.14-.554.418-1.023.79-1.347.84-.735 1.769-.64 2.32-.48-.2.378-.258.913-.164 1.566.027.215.175.39.382.46a.581.581 0 0 0 .59-.144c1.524-1.547 3.281-2.183 4.16-1.996.38.078.457.29.48.356.083.21.24.378.45.468.223.098.48.106.711.012.746-.297 1.375-.523 2.059-.477.945.067 2.062.543 2.359 1.688.156.613.438 1.09.828 1.41.399.332 1.363 1.32 1.645 3.36.308 2.222-.278 3.808-.801 4.726v-5.48l-.606.355c-.984.578-1.843.754-2.554.523a1.972 1.972 0 0 1-.309-.128c-.035-.02-.066-.043-.101-.063-.055-.035-.114-.066-.16-.102-.04-.027-.067-.058-.102-.085-.04-.036-.082-.067-.117-.102-.035-.035-.067-.066-.094-.102-.027-.03-.059-.058-.082-.086-.035-.039-.059-.074-.086-.113-.016-.02-.035-.043-.05-.066-.032-.04-.052-.074-.075-.11a.11.11 0 0 0-.023-.035 4.817 4.817 0 0 1-.079-.148l-.086-.2-.218-.035c-3.836-.59-5.707 1.016-6.23 1.579C7.16 7.672 5.952 6.87 5.94 6.863l-.296-.203-.235.274a4.427 4.427 0 0 1-1.836 1.273l-.261.098v4.027C1.351 9.059 2.34 5.516 3.167 3.59zm13.75 19.488a.122.122 0 0 1-.121.121h-9.36a.122.122 0 0 1-.12-.12v-.68h9.601zm3.2-2.68c0 .665-.536 1.2-1.2 1.2H5.313a1.2 1.2 0 0 1-1.2-1.2V8.855A5.342 5.342 0 0 0 5.793 7.7c.562.293 1.922.864 4.285 1.094l.227.023.133-.183c.015-.02 1.515-2 5.421-1.473.204.356.72 1.07 1.645 1.371.781.258 1.656.164 2.613-.277zm0 0"/>
</svg>
